X: 2
T: The Limestone Rock
R: reel
M: 4/4
L: 1/8
K: Gmaj
dBGB ABGB|dBGB A2 AB|dBGB ABGB|1~c2 Bc A2 AB:|2~c2 Bc A2 Bd||~e2 dg ~e2 dg|~e2 dB A2 Bd|~e2 dg ~e2 dB|~c2 Bc A2 Bd|~e2 dg ~e2 dg|~e2 dB A2 Bd|eaaf gedB|~c2 Bc A2 Bd||


Tune 1619	Setting 26103

